X:012
U: ~ = !turn!
%%topmargin 3cm
T:Bonnie Angela
B:Traditional Irish Fiddle Tunes. Randy Miller and Jack Perron.
Z:Transcribed by Ralph Palmer
C:Jack Perron
R:Reel
L:1/8
M:C|
K:C
G,CEG {/A}GEGc | AFAc GE E2 | {/G}FEFG EC C2 | {/E}DB,DF EG G2 |
EGcG AFcA | EFcd ed d2 | edcG ((3AcA) GE | ((3FGF) DF EC C2 ::
PcBcG PF2 E2 | cBcF PE2 D2 | cBcG PF2 E2 | DFED FG G2 |
cBcG PF2 E2 | cBcF PE2 D2 | cBcG PF2 E2 | ((3DFG) DF EC C2 :|]
